src/aim/aim.svg

<svg xmlns="http://www.w3.org/2000/svg" width="128" height="128" viewBox="-14 -14 128 128" enable-background="new -14 -14 128 128"><path fill="#fff" d="M59.295 61.353c8.295 4.034 17.004 11.44 20.552 20.003-4.55 3.687-5.142 4.148-10.49 8.644-5.151-9.916-11.388-15.381-19.917-17.569-5.007 6.453-13.159 13.989-25.906 17.469-2.841-6.013-3.615-7.713-5.534-12.25 10.195-2.363 13.91-5.586 18.901-15.146-.357-11.604 2.625-23.014 10.066-27.579 3.868 1.268 10.267 5.084 12.087 5.662-.258 1.178.59 2.516 3.714 3.2 2.37.519 7.945 1.338 13.324-3.543 3.299 5.072 5.908 9.973 5.908 9.973s-10.298 10.227-22.484 7.016c-.083 1.589-.143 2.095-.221 4.12zm1.446-28.597c-6.228 0-11.436-5.093-11.436-11.378.001-6.285 5.208-11.378 11.436-11.378 6.225 0 11.514 5.093 11.514 11.379 0 6.283-5.289 11.377-11.514 11.377z"/></svg>

<?xml version="1.0" encoding="UTF-8" standalone="no"?>
<!-- Created with Inkscape (http://www.inkscape.org/) -->

<svg
   xmlns:dc="http://purl.org/dc/elements/1.1/"
   xmlns:cc="http://creativecommons.org/ns#"
   xmlns:rdf="http://www.w3.org/1999/02/22-rdf-syntax-ns#"
   xmlns:svg="http://www.w3.org/2000/svg"
   xmlns="http://www.w3.org/2000/svg"
   xmlns:inkscape="http://www.inkscape.org/namespaces/inkscape"
   version="1.1"
   width="128"
   height="128"
   viewBox="-14 -14 128 128"
   id="svg2">
  <metadata
     id="metadata10">
    <rdf:RDF>
      <cc:Work
         rdf:about="">
        <dc:format>image/svg+xml</dc:format>
        <dc:type
           rdf:resource="http://purl.org/dc/dcmitype/StillImage" />
      </cc:Work>
    </rdf:RDF>
  </metadata>
  <defs
     id="defs8" />
  <path
     d="M 59.295,61.353 C 67.59,65.387 76.299,72.793 79.847,81.356 75.297,85.043 74.705,85.504 69.357,90 64.206,80.084 57.969,74.619 49.44,72.431 44.433,78.884 36.281,86.42 23.534,89.9 20.693,83.887 19.919,82.187 18,77.65 28.195,75.287 31.91,72.064 36.901,62.504 36.544,50.9 39.526,39.49 46.967,34.925 c 3.868,1.268 10.267,5.084 12.087,5.662 -0.258,1.178 0.59,2.516 3.714,3.2 2.37,0.519 7.945,1.338 13.324,-3.543 3.299,5.072 5.908,9.973 5.908,9.973 0,0 -10.298,10.227 -22.484,7.016 -0.083,1.589 -0.143,2.095 -0.221,4.12 z M 60.741,32.756 C 54.513,32.756 49.305,27.663 49.305,21.378 49.306,15.093 54.513,10 60.741,10 c 6.225,0 11.514,5.093 11.514,11.379 0,6.283 -5.289,11.377 -11.514,11.377 z"
     inkscape:connector-curvature="0"
     id="path4"
     style="fill:#ffffff" />
</svg>
